svgs/solid/diagram-nested.svg

<svg xmlns="http://www.w3.org/2000/svg" viewBox="0 0 448 512"><!--! Font Awesome Pro 6.2.0 by @fontawesome - https://fontawesome.com License - https://fontawesome.com/license (Commercial License) Copyright 2022 Fonticons, Inc. --><path d="M0 80C0 53.5 21.5 32 48 32h96c26.5 0 48 21.5 48 48v96c0 26.5-21.5 48-48 48H128v96c0 17.7 14.3 32 32 32h96V336c0-26.5 21.5-48 48-48h96c26.5 0 48 21.5 48 48v96c0 26.5-21.5 48-48 48H304c-26.5 0-48-21.5-48-48V416H160c-53 0-96-43-96-96V224H48c-26.5 0-48-21.5-48-48V80z"/></svg>

<svg xmlns="http://www.w3.org/2000/svg" viewBox="0 0 448 512"><!--! Font Awesome Pro 6.1.2 by @fontawesome - https://fontawesome.com License - https://fontawesome.com/license (Commercial License) Copyright 2022 Fonticons, Inc. --><path d="M0 80C0 53.49 21.49 32 48 32H144C170.5 32 192 53.49 192 80V176C192 202.5 170.5 224 144 224H128V320C128 337.7 142.3 352 160 352H256V336C256 309.5 277.5 288 304 288H400C426.5 288 448 309.5 448 336V432C448 458.5 426.5 480 400 480H304C277.5 480 256 458.5 256 432V416H160C106.1 416 64 373 64 320V224H48C21.49 224 0 202.5 0 176V80z"/></svg>
